assets/CalPadel.svg

<svg fill="none" height="199" viewBox="0 0 298 199" width="298" xmlns="http://www.w3.org/2000/svg" xmlns:xlink="http://www.w3.org/1999/xlink"><clipPath id="a"><path d="m20.1484 58.9951h258.055v79.8909h-258.055z"/></clipPath><path d="m0 0h298v199h-298z" fill="#e2e2e2"/><g clip-path="url(#a)"><path d="m97.8385 101.529h-9.321c-.0668-.753-.2432-1.435-.5293-2.0481-.2758-.6135-.6612-1.1401-1.1571-1.5814-.4847-.4514-1.074-.7957-1.7686-1.0323-.6937-.2465-1.4817-.3702-2.363-.3702-1.5425 0-2.8486.3652-3.9174 1.0966-1.0578.7313-1.862 1.7794-2.4127 3.1454-.5405 1.365-.8102 3.005-.8102 4.919 0 2.021.2757 3.715.8265 5.081.5618 1.354 1.372 2.377 2.4298 3.064 1.0577.677 2.3304 1.017 3.8181 1.017.8479 0 1.6084-.103 2.2808-.307.6714-.215 1.2555-.521 1.7514-.919s.8985-.876 1.2068-1.435c.3195-.57.5344-1.211.6449-1.92l9.321.064c-.1097 1.398-.5122 2.823-1.2059 4.274-.6946 1.441-1.6804 2.775-2.9591 4.001-1.2668 1.215-2.8367 2.193-4.7098 2.935s-4.0493 1.113-6.5288 1.113c-3.1073 0-5.8951-.651-8.3634-1.951-2.4568-1.302-4.4016-3.216-5.8339-5.742-1.4214-2.528-2.1321-5.619-2.1321-9.275 0-3.677.7272-6.7739 2.1816-9.2906 1.4544-2.5267 3.4157-4.4357 5.8837-5.7253 2.4684-1.3014 5.2228-1.9517 8.2641-1.9517 2.1377 0 4.1042.2842 5.9002.8542 1.796.5701 3.3719 1.4034 4.7268 2.5 1.3558 1.0865 2.4461 2.4255 3.2726 4.0169s1.3284 3.4135 1.504 5.4675zm10.4445 21.033c-1.619 0-3.052-.258-4.297-.775-1.234-.526-2.204-1.322-2.909-2.387-.705-1.064-1.058-2.419-1.058-4.064 0-1.355.237-2.511.711-3.468.474-.968 1.135-1.758 1.983-2.372.848-.612 1.835-1.079 2.959-1.402 1.135-.323 2.358-.532 3.669-.629 1.422-.108 2.562-.237 3.421-.387.871-.162 1.498-.382 1.885-.662.385-.29.578-.672.578-1.145v-.065c0-.645-.254-1.139-.761-1.483-.506-.345-1.156-.517-1.95-.517-.87 0-1.581.189-2.132.565-.539.365-.865.93-.975 1.693h-8.396c.11-1.505.6-2.892 1.471-4.161.882-1.28 2.165-2.3011 3.851-3.0642 1.685-.7748 3.791-1.1618 6.314-1.1618 1.817 0 3.448.2098 4.892.6294 1.443.4087 2.672.9838 3.685 1.726 1.014.7316 1.785 1.5916 2.314 2.5806.54.978.81 2.043.81 3.193v16.968h-8.528v-3.484h-.199c-.507.925-1.123 1.673-1.851 2.242-.716.57-1.537.985-2.462 1.242-.915.258-1.923.388-3.025.388zm2.975-5.613c.694 0 1.344-.14 1.951-.42.616-.279 1.118-.683 1.504-1.209.385-.528.578-1.167.578-1.92v-2.065c-.243.097-.501.189-.777.274-.264.087-.551.168-.859.243-.298.075-.618.145-.959.21-.33.064-.678.123-1.041.177-.706.108-1.284.285-1.735.532-.441.237-.772.533-.992.887-.21.344-.314.731-.314 1.162 0 .688.248 1.214.743 1.58.496.366 1.13.549 1.901.549zm25.642-27.8072v33.0322h-9.124v-33.0322zm3.585 33.0322v-33.0322h14.611c2.512 0 4.71.4839 6.595 1.4518 1.884.9679 3.349 2.3277 4.396 4.0805 1.047 1.7527 1.57 3.8013 1.57 6.1449 0 2.366-.54 4.414-1.62 6.146-1.069 1.731-2.573 3.064-4.512 4-1.928.935-4.182 1.403-6.76 1.403h-8.726v-6.968h6.875c1.08 0 2-.183 2.76-.548.772-.377 1.361-.909 1.769-1.597.418-.688.627-1.5.627-2.436 0-.9461-.209-1.7527-.627-2.4189-.408-.6778-.997-1.1935-1.769-1.5487-.76-.3653-1.68-.5483-2.76-.5483h-3.24v25.8709zm35.683.388c-1.62 0-3.053-.258-4.297-.775-1.234-.526-2.204-1.322-2.91-2.387-.705-1.064-1.057-2.419-1.057-4.064 0-1.355.237-2.511.71-3.468.474-.968 1.135-1.758 1.984-2.372.848-.612 1.835-1.079 2.958-1.402 1.135-.323 2.358-.532 3.669-.629 1.422-.108 2.562-.237 3.422-.387.87-.162 1.498-.382 1.884-.662.386-.29.578-.672.578-1.145v-.065c0-.645-.253-1.139-.76-1.483-.506-.345-1.157-.517-1.95-.517-.871 0-1.581.189-2.132.565-.541.365-.865.93-.976 1.693h-8.396c.111-1.505.601-2.892 1.472-4.161.881-1.28 2.165-2.3011 3.85-3.0642 1.686-.7748 3.79-1.1618 6.314-1.1618 1.818 0 3.448.2098 4.892.6294 1.444.4087 2.672.9838 3.686 1.726 1.014.7316 1.785 1.5916 2.314 2.5806.54.978.809 2.043.809 3.193v16.968h-8.527v-3.484h-.199c-.507.925-1.124 1.673-1.851 2.242-.716.57-1.537.985-2.463 1.242-.914.258-1.923.388-3.024.388zm2.975-5.613c.694 0 1.344-.14 1.95-.42.617-.279 1.118-.683 1.504-1.209.386-.528.578-1.167.578-1.92v-2.065c-.242.097-.501.189-.777.274-.264.087-.55.168-.859.243-.298.075-.617.145-.959.21-.33.064-.677.123-1.04.177-.706.108-1.284.285-1.737.532-.44.237-.77.533-.99.887-.21.344-.315.731-.315 1.162 0 .688.248 1.214.744 1.58s1.129.549 1.901.549zm25.708 5.548c-1.807 0-3.472-.462-4.992-1.387-1.51-.925-2.722-2.328-3.636-4.21-.904-1.881-1.355-4.252-1.355-7.113 0-2.989.473-5.419 1.421-7.291.959-1.87 2.193-3.2417 3.702-4.1126 1.521-.8709 3.119-1.3064 4.793-1.3064 1.256 0 2.359.2157 3.306.6453.947.4196 1.741.9837 2.38 1.6934.639.6993 1.124 1.4683 1.454 2.3073h.132v-12.5812h9.124v33.0322h-9.057v-4.064h-.199c-.353.839-.859 1.591-1.52 2.258-.65.656-1.444 1.178-2.38 1.565-.926.376-1.984.564-3.173.564zm3.371-6.839c.837 0 1.553-.236 2.149-.709.606-.484 1.069-1.161 1.388-2.032.331-.882.496-1.925.496-3.13 0-1.226-.165-2.274-.496-3.145-.319-.882-.782-1.554-1.388-2.016-.596-.473-1.312-.71-2.149-.71s-1.554.237-2.148.71c-.584.462-1.037 1.134-1.356 2.016-.308.871-.463 1.919-.463 3.145s.155 2.28.463 3.161c.319.871.772 1.543 1.356 2.016.594.463 1.311.694 2.148.694zm28.671 6.968c-2.711 0-5.047-.505-7.009-1.516-1.95-1.021-3.454-2.484-4.511-4.387-1.047-1.914-1.57-4.204-1.57-6.871 0-2.56.528-4.796 1.586-6.71s2.551-3.4037 4.479-4.4677c1.928-1.0648 4.204-1.5973 6.826-1.5973 1.917 0 3.653.2909 5.207.871 1.553.5809 2.881 1.425 3.982 2.532 1.103 1.097 1.951 2.431 2.546 4.001.595 1.569.892 3.338.892 5.306v2.065h-22.676v-4.904h14.28c-.011-.71-.198-1.333-.562-1.87-.353-.549-.831-.973-1.438-1.275-.595-.312-1.272-.467-2.032-.467-.738 0-1.417.155-2.033.467-.618.302-1.113.72-1.488 1.259-.363.537-.557 1.166-.578 1.886v5.291c0 .796.17 1.505.512 2.129.342.623.832 1.113 1.471 1.467.639.356 1.41.533 2.314.533.628 0 1.201-.086 1.719-.259.529-.171.98-.418 1.355-.741.375-.333.65-.731.826-1.193h8.33c-.286 1.72-.963 3.214-2.032 4.483-1.069 1.259-2.485 2.237-4.248 2.936-1.752.688-3.801 1.032-6.148 1.032zm24.344-33.4842v33.0322h-9.124v-33.0322z" fill="#1e1e1e"/><path d="m271.139 108.486c3.847-.047 7.112 3.173 7.065 7.155-.044 3.746-3.101 7.052-7.203 6.983-3.927-.066-6.945-3.296-6.937-7.099.009-3.89 3.232-7.089 7.075-7.039z" fill="#52a660"/><path d="m48.5701 67.6012-21.3634-5.7772s-.4081.8405-.4913 2.6368c-.0832 1.7964-1.4533 4.9427-2.8388 6.1119-1.3856 1.1697-.9933 2.6653 0 4.7514.9932 2.0857.6124 4.1343-.1337 5.7864-.746 1.6522-.4757 2.5197.5375 3.8834 1.0132 1.3633 1.4298 4.7867 2.0336 5.5823.6037.7961 1.3593 1.6906 1.4743 1.1147s.3816-1.8499 1.4589-1.4663 2.7821.9962 2.3399 1.5817c-.4423.5859-3.3862-1.6407-2.9076.4504.4785 2.0917.2802 3.3199-.2373 2.2276-.5174-1.0927-.578-2.2747-1.1661-1.2388-.5881 1.036-.1652 3.7864.6077 4.8906.7729 1.1046 1.8141.8455.9927 2.7459-.8213 1.901-.4447 2.788.0732 4.09.5177 1.302 4.0888 7.037 3.511 8.433-.5777 1.395-.8354 4.16.4309 4.249s4.986 1.176 5.9465 2.92 1.3835 2.127 2.7715 2.27c1.3881.143 1.2459 1.15 1.2965 2.024s1.0373.114 1.7208.741c.6835.628 3.2238 4.2 3.4018 6.654.1774 2.453.3873 2.728 1.0041 2.796.6163.069 14.1965 1.965 15.0724 1.205.8753-.761-.7666-2.392-.3716-3.426.3949-1.034 2.0273-4.547 2.8531-4.998.8257-.452 2.0946-.853 1.475-2.027-.6202-1.173-1.1869-2.066-1.5184-3.903-.332-1.835-.3688-1.354-1.6129-3.129-1.2445-1.775-21.6264-30.8508-21.6264-30.8508z" stroke="#1e1e1e" stroke-miterlimit="10" stroke-width="4.76294"/></g></svg>

<svg width="298" height="199" viewBox="0 0 298 199" fill="none" xmlns="http://www.w3.org/2000/svg">
<rect width="298" height="199" fill="#E2E2E2"/>
<g clip-path="url(#clip0_34360_9)">
<path d="M97.8385 101.529H88.5175C88.4507 100.776 88.2743 100.094 87.9882 99.4809C87.7124 98.8674 87.327 98.3408 86.8311 97.8995C86.3464 97.4481 85.7571 97.1038 85.0625 96.8672C84.3688 96.6207 83.5808 96.497 82.6995 96.497C81.157 96.497 79.8509 96.8622 78.7821 97.5936C77.7243 98.3249 76.9201 99.373 76.3694 100.739C75.8289 102.104 75.5592 103.744 75.5592 105.658C75.5592 107.679 75.8349 109.373 76.3857 110.739C76.9475 112.093 77.7577 113.116 78.8155 113.803C79.8732 114.48 81.1459 114.82 82.6336 114.82C83.4815 114.82 84.242 114.717 84.9144 114.513C85.5858 114.298 86.1699 113.992 86.6658 113.594C87.1617 113.196 87.5643 112.718 87.8726 112.159C88.1921 111.589 88.407 110.948 88.5175 110.239L97.8385 110.303C97.7288 111.701 97.3263 113.126 96.6326 114.577C95.938 116.018 94.9522 117.352 93.6735 118.578C92.4067 119.793 90.8368 120.771 88.9637 121.513C87.0906 122.255 84.9144 122.626 82.4349 122.626C79.3276 122.626 76.5398 121.975 74.0715 120.675C71.6147 119.373 69.6699 117.459 68.2376 114.933C66.8162 112.405 66.1055 109.314 66.1055 105.658C66.1055 101.981 66.8327 98.8841 68.2871 96.3674C69.7415 93.8407 71.7028 91.9317 74.1708 90.6421C76.6392 89.3407 79.3936 88.6904 82.4349 88.6904C84.5726 88.6904 86.5391 88.9746 88.3351 89.5446C90.1311 90.1147 91.707 90.948 93.0619 92.0446C94.4177 93.1311 95.508 94.4701 96.3345 96.0615C97.161 97.6529 97.6629 99.475 97.8385 101.529ZM108.283 122.562C106.664 122.562 105.231 122.304 103.986 121.787C102.752 121.261 101.782 120.465 101.077 119.4C100.372 118.336 100.019 116.981 100.019 115.336C100.019 113.981 100.256 112.825 100.73 111.868C101.204 110.9 101.865 110.11 102.713 109.496C103.561 108.884 104.548 108.417 105.672 108.094C106.807 107.771 108.03 107.562 109.341 107.465C110.763 107.357 111.903 107.228 112.762 107.078C113.633 106.916 114.26 106.696 114.647 106.416C115.032 106.126 115.225 105.744 115.225 105.271V105.206C115.225 104.561 114.971 104.067 114.464 103.723C113.958 103.378 113.308 103.206 112.514 103.206C111.644 103.206 110.933 103.395 110.382 103.771C109.843 104.136 109.517 104.701 109.407 105.464H101.011C101.121 103.959 101.611 102.572 102.482 101.303C103.364 100.023 104.647 99.0019 106.333 98.2388C108.018 97.464 110.124 97.077 112.647 97.077C114.464 97.077 116.095 97.2868 117.539 97.7064C118.982 98.1151 120.211 98.6902 121.224 99.4324C122.238 100.164 123.009 101.024 123.538 102.013C124.078 102.991 124.348 104.056 124.348 105.206V122.174H115.82V118.69H115.621C115.114 119.615 114.498 120.363 113.77 120.932C113.054 121.502 112.233 121.917 111.308 122.174C110.393 122.432 109.385 122.562 108.283 122.562ZM111.258 116.949C111.952 116.949 112.602 116.809 113.209 116.529C113.825 116.25 114.327 115.846 114.713 115.32C115.098 114.792 115.291 114.153 115.291 113.4V111.335C115.048 111.432 114.79 111.524 114.514 111.609C114.25 111.696 113.963 111.777 113.655 111.852C113.357 111.927 113.037 111.997 112.696 112.062C112.366 112.126 112.018 112.185 111.655 112.239C110.949 112.347 110.371 112.524 109.92 112.771C109.479 113.008 109.148 113.304 108.928 113.658C108.718 114.002 108.614 114.389 108.614 114.82C108.614 115.508 108.862 116.034 109.357 116.4C109.853 116.766 110.487 116.949 111.258 116.949ZM136.9 89.1418V122.174H127.776V89.1418H136.9ZM140.485 122.174V89.1418H155.096C157.608 89.1418 159.806 89.6257 161.691 90.5936C163.575 91.5615 165.04 92.9213 166.087 94.6741C167.134 96.4268 167.657 98.4754 167.657 100.819C167.657 103.185 167.117 105.233 166.037 106.965C164.968 108.696 163.464 110.029 161.525 110.965C159.597 111.9 157.343 112.368 154.765 112.368H146.039V105.4H152.914C153.994 105.4 154.914 105.217 155.674 104.852C156.446 104.475 157.035 103.943 157.443 103.255C157.861 102.567 158.07 101.755 158.07 100.819C158.07 99.8729 157.861 99.0663 157.443 98.4001C157.035 97.7223 156.446 97.2066 155.674 96.8514C154.914 96.4861 153.994 96.3031 152.914 96.3031H149.674V122.174H140.485ZM176.168 122.562C174.548 122.562 173.115 122.304 171.871 121.787C170.637 121.261 169.667 120.465 168.961 119.4C168.256 118.336 167.904 116.981 167.904 115.336C167.904 113.981 168.141 112.825 168.614 111.868C169.088 110.9 169.749 110.11 170.598 109.496C171.446 108.884 172.433 108.417 173.556 108.094C174.691 107.771 175.914 107.562 177.225 107.465C178.647 107.357 179.787 107.228 180.647 107.078C181.517 106.916 182.145 106.696 182.531 106.416C182.917 106.126 183.109 105.744 183.109 105.271V105.206C183.109 104.561 182.856 104.067 182.349 103.723C181.843 103.378 181.192 103.206 180.399 103.206C179.528 103.206 178.818 103.395 178.267 103.771C177.726 104.136 177.402 104.701 177.291 105.464H168.895C169.006 103.959 169.496 102.572 170.367 101.303C171.248 100.023 172.532 99.0019 174.217 98.2388C175.903 97.464 178.007 97.077 180.531 97.077C182.349 97.077 183.979 97.2868 185.423 97.7064C186.867 98.1151 188.095 98.6902 189.109 99.4324C190.123 100.164 190.894 101.024 191.423 102.013C191.963 102.991 192.232 104.056 192.232 105.206V122.174H183.705V118.69H183.506C182.999 119.615 182.382 120.363 181.655 120.932C180.939 121.502 180.118 121.917 179.192 122.174C178.278 122.432 177.269 122.562 176.168 122.562ZM179.143 116.949C179.837 116.949 180.487 116.809 181.093 116.529C181.71 116.25 182.211 115.846 182.597 115.32C182.983 114.792 183.175 114.153 183.175 113.4V111.335C182.933 111.432 182.674 111.524 182.398 111.609C182.134 111.696 181.848 111.777 181.539 111.852C181.241 111.927 180.922 111.997 180.58 112.062C180.25 112.126 179.903 112.185 179.54 112.239C178.834 112.347 178.256 112.524 177.803 112.771C177.363 113.008 177.033 113.304 176.813 113.658C176.603 114.002 176.498 114.389 176.498 114.82C176.498 115.508 176.746 116.034 177.242 116.4C177.738 116.766 178.371 116.949 179.143 116.949ZM204.851 122.497C203.044 122.497 201.379 122.035 199.859 121.11C198.349 120.185 197.137 118.782 196.223 116.9C195.319 115.019 194.868 112.648 194.868 109.787C194.868 106.798 195.341 104.368 196.289 102.496C197.248 100.626 198.482 99.2543 199.991 98.3834C201.512 97.5125 203.11 97.077 204.784 97.077C206.04 97.077 207.143 97.2927 208.09 97.7223C209.037 98.1419 209.831 98.706 210.47 99.4157C211.109 100.115 211.594 100.884 211.924 101.723H212.056V89.1418H221.18V122.174H212.123V118.11H211.924C211.571 118.949 211.065 119.701 210.404 120.368C209.754 121.024 208.96 121.546 208.024 121.933C207.098 122.309 206.04 122.497 204.851 122.497ZM208.222 115.658C209.059 115.658 209.775 115.422 210.371 114.949C210.977 114.465 211.44 113.788 211.759 112.917C212.09 112.035 212.255 110.992 212.255 109.787C212.255 108.561 212.09 107.513 211.759 106.642C211.44 105.76 210.977 105.088 210.371 104.626C209.775 104.153 209.059 103.916 208.222 103.916C207.385 103.916 206.668 104.153 206.074 104.626C205.49 105.088 205.037 105.76 204.718 106.642C204.41 107.513 204.255 108.561 204.255 109.787C204.255 111.013 204.41 112.067 204.718 112.948C205.037 113.819 205.49 114.491 206.074 114.964C206.668 115.427 207.385 115.658 208.222 115.658ZM236.893 122.626C234.182 122.626 231.846 122.121 229.884 121.11C227.934 120.089 226.43 118.626 225.373 116.723C224.326 114.809 223.803 112.519 223.803 109.852C223.803 107.292 224.331 105.056 225.389 103.142C226.447 101.228 227.94 99.7383 229.868 98.6743C231.796 97.6095 234.072 97.077 236.694 97.077C238.611 97.077 240.347 97.3679 241.901 97.948C243.454 98.5289 244.782 99.373 245.883 100.48C246.986 101.577 247.834 102.911 248.429 104.481C249.024 106.05 249.321 107.819 249.321 109.787V111.852H226.645V106.948H240.925C240.914 106.238 240.727 105.615 240.363 105.078C240.01 104.529 239.532 104.105 238.925 103.803C238.33 103.491 237.653 103.336 236.893 103.336C236.155 103.336 235.476 103.491 234.86 103.803C234.242 104.105 233.747 104.523 233.372 105.062C233.009 105.599 232.815 106.228 232.794 106.948V112.239C232.794 113.035 232.964 113.744 233.306 114.368C233.648 114.991 234.138 115.481 234.777 115.835C235.416 116.191 236.187 116.368 237.091 116.368C237.719 116.368 238.292 116.282 238.81 116.109C239.339 115.938 239.79 115.691 240.165 115.368C240.54 115.035 240.815 114.637 240.991 114.175H249.321C249.035 115.895 248.358 117.389 247.289 118.658C246.22 119.917 244.804 120.895 243.041 121.594C241.289 122.282 239.24 122.626 236.893 122.626ZM261.237 89.1418V122.174H252.113V89.1418H261.237Z" fill="#1E1E1E"/>
<path d="M271.139 108.486C274.986 108.439 278.251 111.659 278.204 115.641C278.16 119.387 275.103 122.693 271.001 122.624C267.074 122.558 264.056 119.328 264.064 115.525C264.073 111.635 267.296 108.436 271.139 108.486V108.486Z" fill="#52A660"/>
<path d="M48.5701 67.6012L27.2067 61.824C27.2067 61.824 26.7986 62.6645 26.7154 64.4608C26.6322 66.2572 25.2621 69.4035 23.8766 70.5727C22.491 71.7424 22.8833 73.238 23.8766 75.3241C24.8698 77.4098 24.489 79.4584 23.7429 81.1105C22.9969 82.7627 23.2672 83.6302 24.2804 84.9939C25.2936 86.3572 25.7102 89.7806 26.314 90.5762C26.9177 91.3723 27.6733 92.2668 27.7883 91.6909C27.9033 91.115 28.1699 89.841 29.2472 90.2246C30.3245 90.6082 32.0293 91.2208 31.5871 91.8063C31.1448 92.3922 28.2009 90.1656 28.6795 92.2567C29.158 94.3484 28.9597 95.5766 28.4422 94.4843C27.9248 93.3916 27.8642 92.2096 27.2761 93.2455C26.688 94.2815 27.1109 97.0319 27.8838 98.1361C28.6567 99.2407 29.6979 98.9816 28.8765 100.882C28.0552 102.783 28.4318 103.67 28.9497 104.972C29.4674 106.274 33.0385 112.009 32.4607 113.405C31.883 114.8 31.6253 117.565 32.8916 117.654C34.1579 117.743 37.8776 118.83 38.8381 120.574C39.7986 122.318 40.2216 122.701 41.6096 122.844C42.9977 122.987 42.8555 123.994 42.9061 124.868C42.9567 125.742 43.9434 124.982 44.6269 125.609C45.3104 126.237 47.8507 129.809 48.0287 132.263C48.2061 134.716 48.416 134.991 49.0328 135.059C49.6491 135.128 63.2293 137.024 64.1052 136.264C64.9805 135.503 63.3386 133.872 63.7336 132.838C64.1285 131.804 65.7609 128.291 66.5867 127.84C67.4124 127.388 68.6813 126.987 68.0617 125.813C67.4415 124.64 66.8748 123.747 66.5433 121.91C66.2113 120.075 66.1745 120.556 64.9304 118.781C63.6859 117.006 43.304 87.9302 43.304 87.9302L48.5701 67.6012Z" stroke="#1E1E1E" stroke-width="4.76294" stroke-miterlimit="10"/>
</g>
<defs>
<clipPath id="clip0_34360_9">
<rect width="258.055" height="79.8909" fill="white" transform="translate(20.1484 58.9951)"/>
</clipPath>
</defs>
</svg>
